X: 1
T:So merrily Dances ye Quakers. WCl.19
T:Merrily Kiss The Quaker's Wife,aka. WCl.19
M:6/8
L:1/8
Q:120
S:William Clarke MS,Lincoln,1770.
R:Jig
O:Lincoln
A:England
N:
Z:vmp.Barry Callaghan
K:G
GAB D2 B| A2G FED|GAB D2 D|E3 G3::!
dcB edc|dcB ABc|dcB efg|B3 d3|!
dcB efg|f/2g/2aB A2"cr"G|GAB D2D|E3 G3:||
